dist/images/footer/youtube.svg

<svg width="18" height="18" viewBox="0 0 18 18" fill="none" xmlns="http://www.w3.org/2000/svg">
<path d="M17.235 4.005C16.7467 3.1365 16.2169 2.97675 15.138 2.916C14.0603 2.84288 11.3501 2.8125 9.00225 2.8125C6.64987 2.8125 3.93862 2.84288 2.862 2.91488C1.78537 2.97675 1.25437 3.13537 0.761625 4.005C0.25875 4.87238 0 6.36638 0 8.99663C0 8.99888 0 9 0 9C0 9.00225 0 9.00338 0 9.00338V9.00563C0 11.6246 0.25875 13.1299 0.761625 13.9882C1.25437 14.8568 1.78425 15.0143 2.86087 15.0874C3.93863 15.1504 6.64987 15.1875 9.00225 15.1875C11.3501 15.1875 14.0602 15.1504 15.1391 15.0885C16.218 15.0154 16.7479 14.8579 17.2361 13.9894C17.7435 13.131 18 11.6257 18 9.00675C18 9.00675 18 9.00338 18 9.00113C18 9.00113 18 8.99888 18 8.99775C18 6.36638 17.7435 4.87238 17.235 4.005ZM6.75 12.375V5.625L12.375 9L6.75 12.375Z" fill="white"/>
</svg>

<svg width="18" height="18" fill="none" xmlns="http://www.w3.org/2000/svg"><path d="M17.235 4.005c-.488-.869-1.018-1.028-2.097-1.089-1.078-.073-3.788-.103-6.136-.103-2.352 0-5.063.03-6.14.102-1.077.062-1.608.22-2.1 1.09C.259 4.872 0 6.366 0 8.997v.009c0 2.619.259 4.124.762 4.982.492.869 1.022 1.026 2.099 1.1 1.078.062 3.789.1 6.141.1 2.348 0 5.058-.038 6.137-.1 1.079-.073 1.609-.23 2.097-1.099.508-.858.764-2.363.764-4.982v-.01c0-2.632-.256-4.126-.765-4.993zM6.75 12.375v-6.75L12.375 9 6.75 12.375z" fill="#fff"/></svg>
